logos/teamcity.svg

<?xml version="1.0" encoding="UTF-8"?>
<svg width="256px" height="256px" viewBox="0 0 256 256" version="1.1" xmlns="http://www.w3.org/2000/svg" preserveAspectRatio="xMidYMid">
    <title>TeamCity</title>
    <defs>
        <linearGradient x1="53.1428329%" y1="67.3286946%" x2="46.4838519%" y2="39.3026281%" id="teamCityLinearGradient-1">
            <stop stop-color="#07C3F2" offset="0%"></stop>
            <stop stop-color="#6B57FF" offset="100%"></stop>
        </linearGradient>
        <linearGradient x1="35.7837694%" y1="53.9355231%" x2="66.6132475%" y2="42.8140474%" id="teamCityLinearGradient-2">
            <stop stop-color="#07C3F2" offset="0%"></stop>
            <stop stop-color="#009AE5" offset="100%"></stop>
        </linearGradient>
        <linearGradient x1="73.9786852%" y1="64.1458767%" x2="21.7623532%" y2="35.0716525%" id="teamCityLinearGradient-3">
            <stop stop-color="#009AE5" offset="0%"></stop>
            <stop stop-color="#6B57FF" offset="100%"></stop>
        </linearGradient>
        <linearGradient x1="39.6291606%" y1="80.7276743%" x2="64.8468144%" y2="10.2874222%" id="teamCityLinearGradient-4">
            <stop stop-color="#07C3F2" offset="30%"></stop>
            <stop stop-color="#3BEA62" offset="60%"></stop>
        </linearGradient>
    </defs>
    <g>
        <path d="M65.2133489,221.374183 L11.5630425,80.2961128 C4.75651825,62.4213186 7.03234116,42.3567921 17.6693767,26.4603323 C28.3064122,10.5638725 45.9862374,0.805789179 65.1066882,0.278102996 C91.1758758,-0.39062697 114.59291,16.1305365 122.703439,40.9137068 L169.660789,184.33819 C179.126922,213.268394 75.8260834,249.317827 65.2133489,221.374183 L65.2133489,221.374183 Z" fill="url(#teamCityLinearGradient-1)"></path>
        <path d="M226.190933,176.605693 L94.7050182,247.718 C79.1567529,256.127274 60.8097931,257.686175 44.0655059,252.020728 C27.3212188,246.35528 13.6905084,233.976701 6.4433314,217.854564 C-0.697652436,202.041248 -1.08168818,184.000019 5.37991039,167.89718 C11.841509,151.794342 24.5900193,139.022275 40.6813996,132.530462 L179.340243,76.5365195 C202.928751,67.017528 229.968264,74.8591316 244.803216,95.5211323 C254.119516,108.442507 257.417359,124.750865 253.853566,140.276556 C250.289774,155.802247 240.20983,169.040164 226.190933,176.605693 L226.190933,176.605693 Z" fill="url(#teamCityLinearGradient-2)"></path>
        <path d="M176.513736,177.832227 L40.73473,112.21266 C23.5192031,103.872612 11.4063898,87.7149895 8.2288894,68.8522053 C5.05138903,49.9894211 11.202379,30.7555174 24.7356327,17.2362684 C43.1866507,-1.20589525 71.5745106,-5.30759848 94.4916969,7.15735875 L227.017553,79.1495702 C253.697233,93.6733237 263.749533,126.941623 249.57628,153.80816 C235.669648,180.188364 203.363564,190.811092 176.513736,177.832227 L176.513736,177.832227 Z" fill="url(#teamCityLinearGradient-3)"></path>
        <path d="M37.5882408,250.197732 C19.4084056,241.903363 6.12173013,225.624392 1.63872379,206.152015 C-2.84428256,186.679637 1.9865913,166.230005 14.7095317,150.821816 L129.58305,12.0101671 C138.768519,0.8810253 154.267021,-2.72309089 167.420916,3.21111902 C182.648254,10.0743341 190.077698,27.459028 184.513284,43.206792 L124.62333,213.135075 C118.679529,230.127299 105.853223,243.830306 89.2899736,250.883531 C72.7267241,257.936755 53.9585604,257.687805 37.5882408,250.197732 L37.5882408,250.197732 Z" fill="url(#teamCityLinearGradient-4)"></path>
        <polygon fill="#000000" points="48.0409844 48.0062728 208.031958 48.0062728 208.031958 207.988965 48.0409844 207.988965"></polygon>
        <path d="M67.9865257,177.752236 L127.983141,177.752236 L127.983141,187.751154 L67.9865257,187.751154 L67.9865257,177.752236 Z M84.1189489,79.9761474 L65.7999824,79.9761474 L65.7999824,67.7641353 L115.663836,67.7641353 L115.663836,79.9761474 L97.3448693,79.9761474 L97.3448693,127.944291 L84.1189489,127.944291 L84.1189489,79.9761474 Z M120.647659,98.5196038 L120.650221,97.8675451 C120.494153,89.5214436 123.759521,81.4748327 129.687572,75.5974514 C135.615623,69.7200701 143.690219,66.523646 152.035117,66.7509115 C160.905284,66.2976323 169.54468,69.6658517 175.767111,76.0032439 L167.34092,85.7088606 C163.293868,81.5091381 157.758829,79.0673354 151.928456,78.9095961 C141.908281,78.9095961 134.65215,87.1491525 134.49214,97.2336277 L134.48944,97.76089 C134.48944,108.079774 141.635704,116.665511 151.928456,116.665511 C158.026294,116.665511 162.029209,114.570697 166.165437,111.049504 L166.803132,110.496618 C167.122806,110.214639 167.443945,109.924423 167.767563,109.626273 L176.193754,118.132019 C170.032557,125.283099 160.932091,129.213982 151.501814,128.797532 C143.294087,128.927977 135.383077,125.730678 129.571075,119.934046 C123.875313,114.253346 120.670837,106.550389 120.647659,98.5196038 L120.647659,98.5196038 Z" fill="#FFFFFF"></path>
    </g>
</svg>

<svg preserveAspectRatio="xMidYMid" viewBox="0 0 256 256" xmlns="http://www.w3.org/2000/svg">
  <defs>
    <linearGradient id="teamcity_svg__a" x1="53.143%" x2="46.484%" y1="67.329%" y2="39.303%">
      <stop offset="0%" stop-color="#07C3F2"/>
      <stop offset="100%" stop-color="#6B57FF"/>
    </linearGradient>
    <linearGradient id="teamcity_svg__b" x1="35.784%" x2="66.613%" y1="53.936%" y2="42.814%">
      <stop offset="0%" stop-color="#07C3F2"/>
      <stop offset="100%" stop-color="#009AE5"/>
    </linearGradient>
    <linearGradient id="teamcity_svg__c" x1="73.979%" x2="21.762%" y1="64.146%" y2="35.072%">
      <stop offset="0%" stop-color="#009AE5"/>
      <stop offset="100%" stop-color="#6B57FF"/>
    </linearGradient>
    <linearGradient id="teamcity_svg__d" x1="39.629%" x2="64.847%" y1="80.728%" y2="10.287%">
      <stop offset="30%" stop-color="#07C3F2"/>
      <stop offset="60%" stop-color="#3BEA62"/>
    </linearGradient>
  </defs>
  <path fill="url(#teamcity_svg__a)" d="M65.213 221.374 11.563 80.296A59.031 59.031 0 0 1 65.107.278c26.069-.669 49.486 15.853 57.596 40.636l46.958 143.424c9.466 28.93-93.835 64.98-104.448 37.036Z"/>
  <path fill="url(#teamcity_svg__b)" d="M226.19 176.606 94.706 247.718a63.6 63.6 0 0 1-88.262-29.863 63.723 63.723 0 0 1 34.238-85.325l138.66-55.993c23.588-9.52 50.627-1.678 65.462 18.984a55.352 55.352 0 0 1-18.612 81.085Z"/>
  <path fill="url(#teamcity_svg__c)" d="m176.514 177.832-135.78-65.62a59.087 59.087 0 0 1-15.998-94.976C43.186-1.206 71.575-5.308 94.492 7.157L227.018 79.15c26.68 14.523 36.732 47.792 22.558 74.658-13.906 26.38-46.212 37.003-73.062 24.024Z"/>
  <path fill="url(#teamcity_svg__d)" d="M37.588 250.198a64.26 64.26 0 0 1-22.878-99.376L129.583 12.01c9.186-11.129 24.684-14.733 37.838-8.799 15.227 6.863 22.657 24.248 17.092 39.996l-59.89 169.928a63.994 63.994 0 0 1-87.035 37.063Z"/>
  <path d="M48.041 48.006h159.991V207.99H48.041z"/>
  <path fill="#FFF" d="M67.987 177.752h59.996v10H67.987v-10Zm16.132-97.776H65.8V67.764h49.864v12.212h-18.32v47.968H84.12V79.976Zm36.529 18.544.002-.652a30.556 30.556 0 0 1 31.385-31.117 31.04 31.04 0 0 1 23.732 9.252l-8.426 9.706a22.24 22.24 0 0 0-15.413-6.8c-10.02 0-17.276 8.24-17.436 18.325l-.003.527c0 10.319 7.147 18.905 17.44 18.905 6.097 0 10.1-2.095 14.236-5.616l.638-.553c.32-.282.64-.573.965-.87l8.426 8.505a30.799 30.799 0 0 1-24.692 10.666 30.372 30.372 0 0 1-30.854-30.278Z"/>
</svg>
